svgs/regular/bridge.svg

<svg xmlns="http://www.w3.org/2000/svg" viewBox="0 0 576 512"><!--! Font Awesome Pro 6.6.0 by @fontawesome - https://fontawesome.com License - https://fontawesome.com/license (Commercial License) Copyright 2024 Fonticons, Inc. --><path d="M24 32C10.7 32 0 42.7 0 56S10.7 80 24 80l48 0 0 64-48 0c-13.3 0-24 10.7-24 24s10.7 24 24 24l72 0 128 0 328 0c13.3 0 24-10.7 24-24s-10.7-24-24-24l-48 0 0-64 40 0c13.3 0 24-10.7 24-24s-10.7-24-24-24L24 32zM456 80l0 64-80 0 0-64 80 0zM328 80l0 64-80 0 0-64 80 0zM200 80l0 64-80 0 0-64 80 0zM24 240c-13.3 0-24 10.7-24 24s10.7 24 24 24c26.5 0 48 21.5 48 48l0 104c0 22.1 17.9 40 40 40l64 0c22.1 0 40-17.9 40-40l0-96c0-30.9 25.1-56 56-56l32 0c30.9 0 56 25.1 56 56l0 96c0 22.1 17.9 40 40 40l64 0c22.1 0 40-17.9 40-40l0-104c0-26.5 21.5-48 48-48c13.3 0 24-10.7 24-24s-10.7-24-24-24c-53 0-96 43-96 96l0 96-48 0 0-88c0-57.4-46.6-104-104-104l-32 0c-57.4 0-104 46.6-104 104l0 88-48 0 0-96c0-53-43-96-96-96z"/></svg>

<svg xmlns="http://www.w3.org/2000/svg" viewBox="0 0 576 512"><!--! Font Awesome Pro 6.4.2 by @fontawesome - https://fontawesome.com License - https://fontawesome.com/license (Commercial License) Copyright 2023 Fonticons, Inc. --><path d="M24 32C10.7 32 0 42.7 0 56S10.7 80 24 80H72v64H24c-13.3 0-24 10.7-24 24s10.7 24 24 24H96 224 552c13.3 0 24-10.7 24-24s-10.7-24-24-24H504V80h40c13.3 0 24-10.7 24-24s-10.7-24-24-24H24zM456 80v64H376V80h80zM328 80v64H248V80h80zM200 80v64H120V80h80zM24 240c-13.3 0-24 10.7-24 24s10.7 24 24 24c26.5 0 48 21.5 48 48V440c0 22.1 17.9 40 40 40h64c22.1 0 40-17.9 40-40V344c0-30.9 25.1-56 56-56h32c30.9 0 56 25.1 56 56v96c0 22.1 17.9 40 40 40h64c22.1 0 40-17.9 40-40V336c0-26.5 21.5-48 48-48c13.3 0 24-10.7 24-24s-10.7-24-24-24c-53 0-96 43-96 96v96H408V344c0-57.4-46.6-104-104-104H272c-57.4 0-104 46.6-104 104v88H120V336c0-53-43-96-96-96z"/></svg>
